X: 89
T: Joyce Rossbach's Waltz
T: Joyce R'S waltz
C: Bob McQuillen 23 June 05
%D:2005
R: waltz
S: handwritten page from Jan Jones 2020-8-14 for RJ session
Z: 2020 John Chambers <jc:trillian.mit.edu>
M: 3/4
L: 1/8
K: G
GA \
| "G"B2-BA Bc | BA G2 BA | "C"G3  F E2 | "D7"D6   | "G"d2-dB de | "/B"d2 B2 cd | "Am"e2-ed     ce | "D7"d4 dc |
| "G"B2-BA Bc | dB G2-GF | "C"E2-EF GA | "G"G2 D4 | "C"E2-EG ce | "G"dB G2 D-D |  "C"E2 G2 "D7"F2 | "G"G4    :|
|: Bd \
| "C"e2-ef g2 |"G/B"d2 B2 d2 | "Am"c3 d "D7"c2 | "G"B4    cd | "C"e3 f g2 |"G/B"d2 B2 d2 | "Am"e3      f g2 |"D7"a4 gf |
| "C"e3  f g2 | "Bm"f2 d2 B2 | "Am"c3 d     e2 | "G"d2 B2 G2 | "C"E3 F G2 |  "G"D2 c2 B2 | "D7"A2{BA} G2 F2 | "G"G4   :|
%%begintext align
%% For Joyce Rossbach - with thanks for so many Kindnesses
%% over so many happy years -
%% Love, Bob McQuillen
%%endtext
